svg/uno.svg

<svg viewBox="0 0 20 20" xmlns="http://www.w3.org/2000/svg">
<rect width="100%" height="100%" fill="#7A67F8"/>
<path fill-rule="evenodd" clip-rule="evenodd" d="M5.97538 14.4289C4.83825 14.1836 3.82466 13.2294 3.0509 12.3981C2.64635 11.9884 2.10192 11.3541 2.01319 10.5619C1.92637 9.78657 2.26754 9.02201 3.05624 8.22472L4.18116 7.07267C4.84181 6.40477 5.4171 5.89986 5.98693 5.62286C5.85065 5.68876 5.706 5.77156 5.55295 5.87506C5.84067 4.78445 6.73986 3.81287 7.52742 3.06367C8.41501 2.16827 9.80703 1.20008 11.6558 3.06915L12.7955 4.20623C13.218 4.63328 13.5745 5.02501 13.8483 5.40257C15.0566 5.58203 16.1346 6.59145 16.9478 7.46515C17.8336 8.36225 18.7913 9.76941 16.9424 11.6384L15.8176 12.7905C14.785 13.8342 13.9614 14.4798 13.0409 14.4798H13.0372C12.1306 14.4782 11.3205 13.843 10.3073 12.8189L8.10591 10.6119L7.80329 10.9209C6.82613 11.9088 6.44572 12.487 6.44488 12.9849C6.44396 13.4883 6.84446 14.0988 7.82735 15.0923L8.96699 16.2294C10.1252 17.4002 10.8278 17.1334 11.7198 16.2317L11.7306 16.2212C12.2558 15.7218 12.8423 15.1105 13.1894 14.4754C13.7172 14.4302 14.111 14.2052 14.4076 14.0137C14.1539 15.1495 13.2203 16.1619 12.4059 16.9364C11.8911 17.4559 11.206 18 10.3607 18C9.74906 18 9.05374 17.7154 8.27755 16.9308L7.13791 15.7938C6.63879 15.2893 6.25133 14.8429 5.97538 14.4289ZM12.1301 9.07912L11.9294 9.28421L9.69133 7.04426C8.67821 6.02004 7.86812 5.385 6.96152 5.3833H6.95778C6.87824 5.3833 6.79942 5.38812 6.72113 5.39761C6.75589 5.39333 6.7897 5.39009 6.82256 5.38776C7.1748 4.80066 7.71389 4.24374 8.20289 3.77898L8.21366 3.76833C9.10552 2.86676 9.80794 2.5996 10.9665 3.77065L12.1061 4.90772C13.089 5.90123 13.4896 6.5118 13.4886 7.01507C13.4877 7.5131 13.1073 8.09133 12.1301 9.07912ZM9.96677 8.71131L11.2415 9.98712L10.0679 11.1863L8.79396 9.90913L9.96677 8.71131ZM9.93093 8.67544L9.27052 8.01685L7.10981 10.2235C5.92775 11.4185 5.38142 12.287 5.47277 13.1829C4.847 12.8315 4.25049 12.2443 3.75844 11.7153L3.7479 11.7043C3.26905 11.2203 3.02669 10.822 2.98508 10.4506C2.93392 9.99398 3.18353 9.49457 3.75019 8.92159L4.8751 7.76961C5.85676 6.77711 6.46045 6.3721 6.95793 6.3721H6.95968C7.45235 6.37295 8.02435 6.7575 9.00143 7.74514L9.93093 8.67544ZM14.0599 5.71914C14.0864 5.76264 14.1117 5.80603 14.1357 5.84934C14.11 5.803 14.0846 5.7595 14.0599 5.71914ZM14.43 6.62842C14.4545 6.75655 14.467 6.88576 14.4667 7.01693C14.465 7.93332 13.8368 8.75222 12.8236 9.77645L10.7625 11.8826L10.9975 12.1182C11.9743 13.1056 12.5463 13.4901 13.039 13.491H13.0406C13.5383 13.491 14.1419 13.086 15.1236 12.0935L16.2485 10.9415C16.8152 10.3686 17.0646 9.8693 17.0136 9.41249C16.9719 9.04121 16.7296 8.64283 16.2507 8.15878L16.2403 8.14782C15.7231 7.5919 15.0907 6.97176 14.43 6.62842Z" fill="white"/>
</svg>

<svg xmlns="http://www.w3.org/2000/svg" viewBox="0 0 20 20">
  <rect width="100%" height="100%" fill="#7A67F8"/>
  <path fill="#fff" fill-rule="evenodd" d="M5.98 14.43c-1.14-.25-2.16-1.2-2.93-2.03a3.28 3.28 0 0 1-1.04-1.84c-.08-.77.26-1.54 1.05-2.34l1.12-1.15a7.18 7.18 0 0 1 1.37-1.2c.3-1.09 1.19-2.06 1.98-2.8.89-.9 2.28-1.87 4.13 0L12.8 4.2c.42.42.77.82 1.05 1.2 1.2.17 2.28 1.18 3.1 2.06.88.9 1.84 2.3 0 4.17l-1.13 1.15c-1.04 1.04-1.86 1.69-2.78 1.69-.9 0-1.72-.64-2.73-1.66l-2.2-2.2-.3.3c-.98.99-1.36 1.57-1.37 2.06 0 .5.4 1.12 1.39 2.11l1.14 1.14c1.16 1.17 1.86.9 2.75 0h.01a7.76 7.76 0 0 0 1.46-1.75A2.6 2.6 0 0 0 14.4 14c-.26 1.14-1.19 2.15-2 2.93-.52.52-1.2 1.06-2.05 1.06-.61 0-1.3-.28-2.08-1.07L7.14 15.8c-.5-.5-.89-.95-1.16-1.36Zm6.15-5.35-.2.2-2.24-2.24C8.68 6.02 7.87 5.38 6.96 5.38a1.96 1.96 0 0 0-.14 0 8.2 8.2 0 0 1 1.38-1.6l.01-.01c.9-.9 1.6-1.17 2.76 0l1.14 1.14c.98 1 1.38 1.6 1.38 2.1s-.38 1.08-1.36 2.07ZM9.97 8.7 11.24 10l-1.17 1.2L8.79 9.9l1.18-1.2Zm-.04-.03-.66-.66-2.16 2.2c-1.18 1.2-1.73 2.07-1.64 2.96a7.7 7.7 0 0 1-1.71-1.46l-.01-.02c-.48-.48-.72-.88-.76-1.25-.06-.46.2-.96.76-1.53l1.13-1.15c.98-1 1.58-1.4 2.08-1.4S8.02 6.76 9 7.75l.93.93Zm4.13-2.96Zm.37.9c.02.14.04.27.04.4 0 .91-.63 1.73-1.65 2.76l-2.06 2.1.24.24c.97.99 1.55 1.37 2.04 1.37.5 0 1.1-.4 2.08-1.4l1.13-1.15c.57-.57.81-1.07.76-1.53-.04-.37-.28-.77-.76-1.25l-.01-.01a7.35 7.35 0 0 0-1.81-1.52Z" clip-rule="evenodd"/>
</svg>
